img/climate-icon/autobrightness.svg

<svg width="24" height="24" viewBox="0 0 24 24" fill="none" xmlns="http://www.w3.org/2000/svg">
<path d="M12.0101 22.7401C11.3801 22.7401 10.7601 22.5301 10.2701 22.1101L8.69012 20.7601C8.53012 20.6201 8.13012 20.4801 7.92012 20.4801H6.17012C4.69012 20.4801 3.49012 19.2801 3.49012 17.8001V16.0901C3.49012 15.8801 3.35012 15.4801 3.22012 15.3301L1.86012 13.7301C1.04012 12.7601 1.04012 11.2401 1.86012 10.2601L3.22012 8.66007C3.35012 8.51007 3.49012 8.11007 3.49012 7.90007V6.20007C3.49012 4.72007 4.69012 3.52007 6.17012 3.52007H7.90012C8.11012 3.52007 8.50012 3.37007 8.67012 3.23007L10.2501 1.88007C11.2301 1.05007 12.7601 1.05007 13.7401 1.88007L15.3201 3.23007C15.4801 3.37007 15.8901 3.51007 16.1001 3.51007H17.8001C19.2801 3.51007 20.4801 4.71007 20.4801 6.19007V7.89007C20.4801 8.10007 20.6301 8.49007 20.7701 8.66007L22.1201 10.2401C22.9601 11.2301 22.9501 12.7601 22.1201 13.7301L20.7701 15.3101C20.6301 15.4801 20.4901 15.8701 20.4901 16.0801V17.7801C20.4901 19.2601 19.2901 20.4601 17.8101 20.4601H16.1101C15.9001 20.4601 15.5101 20.6101 15.3301 20.7501L13.7501 22.1001C13.2601 22.5301 12.6301 22.7401 12.0101 22.7401ZM6.17012 5.02007C5.52012 5.02007 4.99012 5.55007 4.99012 6.20007V7.90007C4.99012 8.47007 4.73012 9.19007 4.36012 9.63007L3.00012 11.2301C2.66012 11.6401 2.66012 12.3601 3.00012 12.7601L4.35012 14.3501C4.71012 14.7601 4.98012 15.5101 4.98012 16.0801V17.7901C4.98012 18.4401 5.51012 18.9701 6.16012 18.9701H7.90012C8.46012 18.9701 9.20012 19.2401 9.64012 19.6101L11.2301 20.9701C11.6401 21.3201 12.3501 21.3201 12.7701 20.9701L14.3501 19.6201C14.8001 19.2401 15.5301 18.9801 16.0901 18.9801H17.7901C18.4401 18.9801 18.9701 18.4501 18.9701 17.8001V16.1001C18.9701 15.5401 19.2401 14.8101 19.6101 14.3601L20.9701 12.7701C21.3201 12.3601 21.3201 11.6401 20.9701 11.2301L19.6201 9.65007C19.2401 9.20007 18.9801 8.47007 18.9801 7.91007V6.20007C18.9801 5.55007 18.4501 5.02007 17.8001 5.02007H16.1001C15.5301 5.02007 14.7901 4.75007 14.3501 4.38007L12.7601 3.02007C12.3501 2.67007 11.6401 2.67007 11.2201 3.02007L9.65012 4.38007C9.20012 4.75007 8.47012 5.02007 7.90012 5.02007H6.17012Z" fill="white"/>
<path d="M14.8101 16.24L12.0001 9.91001L9.19006 16.24L7.81006 15.63L11.3101 7.76001H12.6901L16.1901 15.63L14.8101 16.24Z" fill="white"/>
<path d="M13.75 14.0601H10.25C9.84 14.0601 9.5 13.7201 9.5 13.3101C9.5 12.9001 9.84 12.5601 10.25 12.5601H13.75C14.16 12.5601 14.5 12.9001 14.5 13.3101C14.5 13.7201 14.16 14.0601 13.75 14.0601Z" fill="white"/>
</svg>

<svg width="24" height="24" fill="none" xmlns="http://www.w3.org/2000/svg"><path d="M12.01 22.74c-.63 0-1.25-.21-1.74-.63l-1.58-1.35c-.16-.14-.56-.28-.77-.28H6.17a2.68 2.68 0 0 1-2.68-2.68v-1.71c0-.21-.14-.61-.27-.76l-1.36-1.6c-.82-.97-.82-2.49 0-3.47l1.36-1.6c.13-.15.27-.55.27-.76V6.2c0-1.48 1.2-2.68 2.68-2.68H7.9c.21 0 .6-.15.77-.29l1.58-1.35c.98-.83 2.51-.83 3.49 0l1.58 1.35c.16.14.57.28.78.28h1.7c1.48 0 2.68 1.2 2.68 2.68v1.7c0 .21.15.6.29.77l1.35 1.58c.84.99.83 2.52 0 3.49l-1.35 1.58c-.14.17-.28.56-.28.77v1.7c0 1.48-1.2 2.68-2.68 2.68h-1.7c-.21 0-.6.15-.78.29l-1.58 1.35c-.49.43-1.12.64-1.74.64zM6.17 5.02c-.65 0-1.18.53-1.18 1.18v1.7c0 .57-.26 1.29-.63 1.73L3 11.23c-.34.41-.34 1.13 0 1.53l1.35 1.59c.36.41.63 1.16.63 1.73v1.71c0 .65.53 1.18 1.18 1.18H7.9c.56 0 1.3.27 1.74.64l1.59 1.36c.41.35 1.12.35 1.54 0l1.58-1.35c.45-.38 1.18-.64 1.74-.64h1.7c.65 0 1.18-.53 1.18-1.18v-1.7c0-.56.27-1.29.64-1.74l1.36-1.59c.35-.41.35-1.13 0-1.54l-1.35-1.58c-.38-.45-.64-1.18-.64-1.74V6.2c0-.65-.53-1.18-1.18-1.18h-1.7c-.57 0-1.31-.27-1.75-.64l-1.59-1.36c-.41-.35-1.12-.35-1.54 0L9.65 4.38c-.45.37-1.18.64-1.75.64H6.17z" fill="#fff"/><path d="M14.81 16.24 12 9.91l-2.81 6.33-1.38-.61 3.5-7.87h1.38l3.5 7.87-1.38.61z" fill="#fff"/><path d="M13.75 14.06h-3.5c-.41 0-.75-.34-.75-.75s.34-.75.75-.75h3.5c.41 0 .75.34.75.75s-.34.75-.75.75z" fill="#fff"/></svg>
